
(
{ SinOsc.ar([100, 105], 0, 0.1) }.play;
{ SinOsc.ar([200, 205], 0, 0.1) }.play;
{ SinOsc.ar([400, 405], 0, 0.1) }.play;
{ SinOsc.ar([800, 805], 0, 0.1) }.play;
{ SinOsc.ar([1600, 1605], 0, 0.1) }.play;
{ SinOsc.ar([3200, 3205], 0, 0.1) }.play;
)