
(
a = { SinOsc.ar([60.rrand(600), 60.rrand(600)], 0, 0.01) }.play;
b = { SinOsc.ar([60.rrand(600), 60.rrand(600)], 0, 0.01) }.play;
c = { SinOsc.ar([60.rrand(600), 60.rrand(600)], 0, 0.01) }.play;
d = { SinOsc.ar([60.rrand(600), 60.rrand(600)], 0, 0.01) }.play;
e = { SinOsc.ar([60.rrand(600), 60.rrand(600)], 0, 0.01) }.play;
f = { SinOsc.ar([60.rrand(600), 60.rrand(600)], 0, 0.01) }.play;
)
(
a.free;
b.free;
c.free;
d.free;
e.free;
f.free;
)

